X:1     %Music
T:The Trees They're All bare
B:Stubbs, K, 1970, The Life of a Man, EFDS, London
S:George Townshend, Lewes, Sussex, 1960
Z:Ken Stubbs
F:http://www.folkinfo.org/songs
M:2/4     %Meter
L:1/16     %
K:G
D4 |G4 D2D2 |G4 (GA)B2 |A2G2 A2B2 | (A2c2)
w:The trees they're all bare, not_ one green leaf to be seen_
 d2d2 |[M:3/4][L:1/8] (A/B/)d (B3/2G/) AA | [M:2/4][L:1/16] G8|
w:And those mead-ows their beau-*ty hath lost;
B2B2 B2B2 | A4 (AB)c2 |d2d2 (ed)^c2 |d4 
w: As_ for the leaves they_ are fall-en from_ the trees 
D2D2 |(E2F2) (G3F) | (E2D2-HD4) |
w:And those streams_ are_ fast.__
c2B2 c2d2 |e6 (cA) | [M:3/4][L:1/8] (cB) A2 (A3/2F/) | [M:2/4][L:1/16] G4|]
w: And those streams are fast fast_ bound_ by the_ frost